X:113
T:Saxon Waltz. Le4.113
M:3/4
L:1/8
Q:1/4=100
N:64 in MS
B:L.Leadley MS#4 c1850
Z:Village Music Project, 2016 Ruairidh Greig
K:C
e2|(fe)dagf|(eG)c3e|dGB3G|eGc3e|
(fe)d(agf)|eGc3e|(dG)B3d|c4:|
|:ce|(dG)B3G|eGc3G|(dG)B3G|(eG)c3e|
(fed)(agf)|eGc3e|(dG)B3d|c4:|

